X:1
T:Cannily, Cannily
M:3/4
L:1/4
K:G
 E G A| G F D| E D B,| A, B, D| E/2 G3/2 A| G3/2 F/2 D| B,3-| B,3|\
 B A B| d/2 B3/2 A| G3/2 E/2 D| B, A, B,| E A G| F D B,| E3-| E3| E G A|\
 G F D| E D B,| A, B, D| E/2 G3/2 A| G3/2 F/2 D| E E3/2 D/2| B,3| B A B|\
 d/2 B3/2 A| G3/2 E/2 D| B, A, B,| E A G| F D B,| E/2 G3/2 F| E3|
